X: 38972
T: Swallow's Nest, The
R: jig
M: 6/8
K: Dmajor
|:d3 edc|dAG FGE|DFA dAF|E3 GFE|
DFA dAF|EGB efg|f3 gec|edc d3:|
|:a3 fdf|g3 ece|f3 g3|ecA GFE|
DFA dAF|EGB efg|f3 gec|edc d3:|

